X: 41
M:6/6
L:1/8
K:C
"Andante"E|A2 d/2c/2 AGE|Gcd ea^f|gec dcA|GE^F G2 E|
e/2^f/2|g3/2^f/2a/2f/2 g3/2b/2a/2g/2|f/2e/2d/2e/2f/2d/2 e2 A|
c/2B/2c/2d/2e/2^f/2 ge/2c/2A/2| GEc/2A/2 GEG|
gec dcA|A3-A2||
g/2f/2e/2g/2f/2e/2 d/2f/2e/2d/2c/2B/2|cE^F G2 A/2B/2|
cE^F G2 A/2B/2|c/2B/2c/2d/2e/2^f/2 gea|
gec dcA|A3-A2||

